static/images/drake/drake-all-done.svg

<svg height="250" viewBox="0 0 400 250" width="400" xmlns="http://www.w3.org/2000/svg"><g fill="none" fill-rule="evenodd" transform="translate(119 111)"><path d="m81.7131025 112.165624c-8.6365677 2.358611-20.0221901 3.791823-32.5 3.791823-26.9911565 0-48.87181208-6.706203-48.87181208-14.978724 0-8.2725201 21.88065558-14.978723 48.87181208-14.978723 12.4778099 0 23.8634323 1.433212 32.5 3.7918227 8.6365677-2.3586107 20.0221905-3.7918227 32.5000005-3.7918227 26.991156 0 48.871812 6.7062029 48.871812 14.978723 0 8.272521-21.880656 14.978724-48.871812 14.978724-12.47781 0-23.8634328-1.433212-32.5000005-3.791823z" fill="#e1e2e2" fill-opacity=".278051"/><ellipse cx="48.675864" cy="100.191489" fill="#e1e2e2" rx="26.675864" ry="8.191489"/><ellipse cx="113.675864" cy="100.191489" fill="#e1e2e2" rx="26.675864" ry="8.191489"/><path d="m112.895249 103.577253c10.015657 0 18.134952-2.424854 18.134952-5.4160633 0-1.7435632 6.178782-37.1963476-1.438406-52.6357988-2.851851-5.7804821-16.335935-16.3330083-23.416013-19.3750005-7.0800785-3.0419922-18.6548912-6.286285-19.5068366-3.6074223-.3161617.9941408 7.4937955 8.1539091 11.2851562 11.2900397 3.7913604 3.1361307 7.7520874 7.1582819 9.9267574 9.8378909 2.712285 3.3420532 4.831543 10.6803752 3.91797 17.2939434-2.062735 14.9326172-17.0385331 35.4933231-17.0385331 37.1963476 0 2.9912093 8.1192951 5.4160633 18.1349531 5.4160633z" fill="#9ebec9"/><path d="m126.491802 101.745255c2.824408-.954958 4.538399-2.2097325 4.538399-3.5840653 0-1.382603 3.885281-23.9619091 1.695811-40.9501798-.61859 9.0668221-2.762145 29.2509042-6.23421 44.5342451z" fill="#7ba6b4"/><path d="m107.88086 41.9594735c-3.301354-4.921643-12.5556647-14.5361337-20.8533497-18.5968285 1.560382 2.2159789 7.6993438 7.8008542 10.9265913 10.4703628 3.7913604 3.1361307 7.7520874 7.1582819 9.9267574 9.8378909 2.712285 3.3420532 1.147996.0000006.000001-1.7114252z" fill="#7ba6b4"/><path d="m48.1349527 104.408266c10.0156578 0 18.1349527-2.424855 18.1349527-5.4160637 0-.5627926 16.4048993-21.1464977 18.1070477-35.9746227 1.7021485-14.828125.3193364-49.2119161-5.0253906-56.06836101-3.7477645-4.80779295-14.844865-8.93171352-25.296875 3.92968801-10.828125 13.3242184 7.8808592 16.3144527 4.375 42.2285153s-28.4296875 45.1380902-28.4296875 45.8847804c0 2.9912087 8.1192949 5.4160637 18.1349527 5.4160637z" fill="#9ebec9"/><path d="m56.1804213 103.847435s10.0894841-2.726971 10.0894841-4.8552327c0-.5627926 16.4048993-21.1464977 18.1070477-35.9746227 1.7021485-14.828125.3193364-49.2119161-5.0253906-56.06836101-3.7477645-4.80779295-14.844865-8.93171352-25.296875 3.92968801-10.828125 13.3242184 28.8027348 24.3525392 25.2968756 50.2666018s-23.1711418 42.7019266-23.1711418 42.7019266z" fill="#7ba6b4"/><path d="m54.2685547 45.9765625c3.0273438 2.6025391 16.3951149 1.7539063 19.8515625.5078125s9.2871076-23.9775382 8.1894513-30.3593751c-1.0976562-6.38183691-.5253906-11.22753917-6.4257793-13.97070308s-17.5152323-2.02636715-22.0791017.00000006c-4.5638694 2.0263672-5.0566405 7.95507812-6.8496094 13.97070312-1.7929688 6.015625 4.2861328 27.2490234 7.3134766 29.8515625z" fill="#9ebec9"/><path d="m55.1416015 46.484375c1.918213 1.7624512 17.7438959 1.184082 18.9785157 0s.0000002-.750978-2.769531-.7509779c-2.7695313 0-9.9462892-.0000001-12.3271486-.0000001-2.3808595 0-5.800049-1.0114731-3.8818361.750978z" fill="#7ba6b4"/><path d="m43 16h19v9h-19z" fill="#fff"/><path d="m67 16h19v9h-19z" fill="#fff"/><path d="m84.9370117 16v7.9111328h-16.836914v-7.9111328h-7.4260254v7.9111328h-16.4953614v-7.9111328h-1.1914062v9h19.1098633v-7.4555664h4.902832v7.4555664h19v-9z" fill="#d2dee6"/><path d="m57.2506864 23.5828228c.690735 0 1.2506864-1.0258999 1.2506864-2.2914114 0-1.2655116-.5599514-2.2914114-1.2506864-2.2914114s-1.2506864 1.0258998-1.2506864 2.2914114c0 1.2655115.5599514 2.2914114 1.2506864 2.2914114z" fill="#6c93a0"/><path d="m72.2506864 23.5828228c.690735 0 1.2506864-1.0258999 1.2506864-2.2914114 0-1.2655116-.5599514-2.2914114-1.2506864-2.2914114s-1.2506864 1.0258998-1.2506864 2.2914114c0 1.2655115.5599514 2.2914114 1.2506864 2.2914114z" fill="#6c93a0"/><g fill="#7ba6b4"><path d="m76.777768 4.06522833h-5.3544818c-1.8194861 0-2.9817628 1.44786523-2.5987003 3.22147712l.729165 3.37609515z" transform="matrix(-.60181502 .79863551 -.79863551 -.60181502 122.286516 -46.018822)"/><path d="m60.4396807 3.91712763h-5.3544818c-1.8194861 0-2.9817628 1.44786523-2.5987002 3.22147712l.7291649 3.37609515z" transform="matrix(.60181502 .79863551 .79863551 -.60181502 16.556836 -33.207876)"/><path d="m58.3194783 41.0155017c.5756126 0 1.0422387-.4663181 1.0422387-1.0415507 0-.5752325-.4666261-1.0415506-1.0422387-1.0415506-.5756125 0-1.0422386.4663181-1.0422386 1.0415506 0 .5752326.4666261 1.0415507 1.0422386 1.0415507z"/><path d="m70.3194783 41.0155017c.5756126 0 1.0422387-.4663181 1.0422387-1.0415507 0-.5752325-.4666261-1.0415506-1.0422387-1.0415506-.5756125 0-1.0422386.4663181-1.0422386 1.0415506 0 .5752326.4666261 1.0415507 1.0422386 1.0415507z"/></g></g></svg>

<?xml version="1.0" encoding="UTF-8" standalone="no"?>
<svg width="400px" height="250px" viewBox="0 0 400 250" version="1.1" xmlns="http://www.w3.org/2000/svg" xmlns:xlink="http://www.w3.org/1999/xlink" xmlns:sketch="http://www.bohemiancoding.com/sketch/ns">
    <!-- Generator: Sketch 3.2.2 (9983) - http://www.bohemiancoding.com/sketch -->
    <title>drake-all-done</title>
    <desc>Created with Sketch.</desc>
    <defs></defs>
    <g id="Page-1" stroke="none" stroke-width="1" fill="none" fill-rule="evenodd" sketch:type="MSPage">
        <g id="drake-all-done" sketch:type="MSArtboardGroup">
            <g sketch:type="MSLayerGroup" transform="translate(119.000000, 111.000000)">
                <path d="M81.7131025,112.165624 C73.0765348,114.524235 61.6909124,115.957447 49.2131025,115.957447 C22.221946,115.957447 0.341290421,109.251244 0.341290421,100.978723 C0.341290421,92.7062029 22.221946,86 49.2131025,86 C61.6909124,86 73.0765348,87.433212 81.7131025,89.7918227 C90.3496702,87.433212 101.735293,86 114.213103,86 C141.204259,86 163.084915,92.7062029 163.084915,100.978723 C163.084915,109.251244 141.204259,115.957447 114.213103,115.957447 C101.735293,115.957447 90.3496702,114.524235 81.7131025,112.165624 Z" id="Oval-33" fill-opacity="0.278051404" fill="#E1E2E2" sketch:type="MSShapeGroup"></path>
                <ellipse id="Oval-18" fill="#E1E2E2" sketch:type="MSShapeGroup" cx="48.6758641" cy="100.191489" rx="26.6758641" ry="8.19148936"></ellipse>
                <ellipse id="Oval-19" fill="#E1E2E2" sketch:type="MSShapeGroup" cx="113.675864" cy="100.191489" rx="26.6758641" ry="8.19148936"></ellipse>
                <path d="M112.895249,103.577253 C122.910906,103.577253 131.030201,101.152399 131.030201,98.1611897 C131.030201,96.4176265 137.208983,60.9648421 129.591795,45.5253909 C126.739944,39.7449088 113.25586,29.1923826 106.175782,26.1503904 C99.0957035,23.1083982 87.5208908,19.8641054 86.6689454,22.5429681 C86.3527837,23.5371089 94.1627409,30.6968772 97.9541016,33.8330078 C101.745462,36.9691385 105.706189,40.9912897 107.880859,43.6708987 C110.593144,47.0129519 112.712402,54.3512739 111.798829,60.9648421 C109.736094,75.8974593 94.7602959,96.4581652 94.7602959,98.1611897 C94.7602959,101.152399 102.879591,103.577253 112.895249,103.577253 Z" id="Oval-24" fill="#9EBEC9" sketch:type="MSShapeGroup"></path>
                <path d="M126.491802,101.745255 C129.31621,100.790297 131.030201,99.5355225 131.030201,98.1611897 C131.030201,96.7785867 134.915482,74.1992806 132.726012,57.2110099 C132.107422,66.277832 129.963867,86.4619141 126.491802,101.745255 Z" id="Oval-26" fill="#7BA6B4" sketch:type="MSShapeGroup"></path>
                <path d="M107.88086,41.9594735 C104.579506,37.0378305 95.3251953,27.4233398 87.0275103,23.362645 C88.5878923,25.5786239 94.7268541,31.1634992 97.9541016,33.8330078 C101.745462,36.9691385 105.706189,40.9912897 107.880859,43.6708987 C110.593144,47.0129519 109.028855,43.6708993 107.88086,41.9594735 Z" id="Oval-25" fill="#7BA6B4" sketch:type="MSShapeGroup"></path>
                <path d="M48.1349527,104.408266 C58.1506105,104.408266 66.2699054,101.983411 66.2699054,98.9922023 C66.2699054,98.4294097 82.6748047,77.8457046 84.3769531,63.0175796 C86.0791016,48.1894546 84.6962895,13.8056635 79.3515625,6.94921859 C75.603798,2.14142564 64.5066975,-1.98249493 54.0546875,10.8789066 C43.2265625,24.203125 61.9355467,27.1933593 58.4296875,53.1074219 C54.9238283,79.0214845 30,98.2455121 30,98.9922023 C30,101.983411 38.1192949,104.408266 48.1349527,104.408266 Z" id="Oval-21" fill="#9EBEC9" sketch:type="MSShapeGroup"></path>
                <path d="M56.1804213,103.847435 C56.1804213,103.847435 66.2699054,101.120464 66.2699054,98.9922023 C66.2699054,98.4294097 82.6748047,77.8457046 84.3769531,63.0175796 C86.0791016,48.1894546 84.6962895,13.8056635 79.3515625,6.94921859 C75.603798,2.14142564 64.5066975,-1.98249493 54.0546875,10.8789066 C43.2265625,24.203125 82.8574223,35.2314458 79.3515631,61.1455084 C75.8457039,87.059571 56.1804213,103.847435 56.1804213,103.847435 Z" id="Oval-23" fill="#7BA6B4" sketch:type="MSShapeGroup"></path>
                <path d="M54.2685547,45.9765625 C57.2958985,48.5791016 70.6636696,47.7304688 74.1201172,46.484375 C77.5765648,45.2382812 83.4072248,22.5068368 82.3095685,16.1249999 C81.2119123,9.74316299 81.7841779,4.89746073 75.8837892,2.15429682 C69.9834005,-0.588867094 58.3685569,0.127929665 53.8046875,2.15429688 C49.2408181,4.18066408 48.748047,10.109375 46.9550781,16.125 C45.1621093,22.140625 51.2412109,43.3740234 54.2685547,45.9765625 Z" id="Path-89" fill="#9EBEC9" sketch:type="MSShapeGroup"></path>
                <path d="M55.1416015,46.484375 C57.0598145,48.2468262 72.8854974,47.668457 74.1201172,46.484375 C75.354737,45.300293 74.1201174,45.733397 71.3505862,45.7333971 C68.5810549,45.7333971 61.404297,45.733397 59.0234376,45.733397 C56.6425781,45.733397 53.2233886,44.7219239 55.1416015,46.484375 Z" id="Path-90" fill="#7BA6B4" sketch:type="MSShapeGroup"></path>
                <rect id="Rectangle-420" fill="#FFFFFF" sketch:type="MSShapeGroup" x="43" y="16" width="19" height="9"></rect>
                <rect id="Rectangle-420" fill="#FFFFFF" sketch:type="MSShapeGroup" x="67" y="16" width="19" height="9"></rect>
                <path d="M84.9370117,16 L84.9370117,23.9111328 L68.1000977,23.9111328 L68.1000977,16 L60.6740723,16 L60.6740723,23.9111328 L44.1787109,23.9111328 L44.1787109,16 L42.9873047,16 L42.9873047,25 L62.097168,25 L62.097168,17.5444336 L67,17.5444336 L67,25 L86,25 L86,16 L84.9370117,16 Z" id="Rectangle-421" fill="#D2DEE6" sketch:type="MSShapeGroup"></path>
                <path d="M57.2506864,23.5828228 C57.9414214,23.5828228 58.5013728,22.5569229 58.5013728,21.2914114 C58.5013728,20.0258998 57.9414214,19 57.2506864,19 C56.5599514,19 56,20.0258998 56,21.2914114 C56,22.5569229 56.5599514,23.5828228 57.2506864,23.5828228 Z" id="Oval-21" fill="#6C93A0" sketch:type="MSShapeGroup"></path>
                <path d="M72.2506864,23.5828228 C72.9414214,23.5828228 73.5013728,22.5569229 73.5013728,21.2914114 C73.5013728,20.0258998 72.9414214,19 72.2506864,19 C71.5599514,19 71,20.0258998 71,21.2914114 C71,22.5569229 71.5599514,23.5828228 72.2506864,23.5828228 Z" id="Oval-22" fill="#6C93A0" sketch:type="MSShapeGroup"></path>
                <path d="M76.777768,4.06522833 L71.4232862,4.06522833 C69.6038001,4.06522833 68.4415234,5.51309356 68.8245859,7.28670545 L69.5537509,10.6628006 L76.777768,4.06522833 Z" id="Path-7" fill="#7BA6B4" sketch:type="MSShapeGroup" transform="translate(72.615327, 7.475493) rotate(-233.000000) translate(-72.615327, -7.475493) "></path>
                <path d="M60.4396807,3.91712763 L55.0851989,3.91712763 C53.2657128,3.91712763 52.1034361,5.36499286 52.4864987,7.13860475 L53.2156636,10.5146999 L60.4396807,3.91712763 Z" id="Path-7" fill="#7BA6B4" sketch:type="MSShapeGroup" transform="translate(56.277240, 7.327392) scale(-1, 1) rotate(-233.000000) translate(-56.277240, -7.327392) "></path>
                <path d="M58.3194783,41.0155017 C58.8950909,41.0155017 59.361717,40.5491836 59.361717,39.973951 C59.361717,39.3987185 58.8950909,38.9324004 58.3194783,38.9324004 C57.7438658,38.9324004 57.2772397,39.3987185 57.2772397,39.973951 C57.2772397,40.5491836 57.7438658,41.0155017 58.3194783,41.0155017 Z" id="Oval-28" fill="#7BA6B4" sketch:type="MSShapeGroup"></path>
                <path d="M70.3194783,41.0155017 C70.8950909,41.0155017 71.361717,40.5491836 71.361717,39.973951 C71.361717,39.3987185 70.8950909,38.9324004 70.3194783,38.9324004 C69.7438658,38.9324004 69.2772397,39.3987185 69.2772397,39.973951 C69.2772397,40.5491836 69.7438658,41.0155017 70.3194783,41.0155017 Z" id="Oval-29" fill="#7BA6B4" sketch:type="MSShapeGroup"></path>
            </g>
        </g>
    </g>
</svg>
